arcticons-dark/symbolic/apps/youtube_music-symbolic.svg

<?xml version="1.0" encoding="UTF-8" standalone="no"?>
<svg
   viewBox="0 0 48 48"
   version="1.1"
   id="svg2"
   sodipodi:docname="youtube_music.svg"
   xmlns:inkscape="http://www.inkscape.org/namespaces/inkscape"
   xmlns:sodipodi="http://sodipodi.sourceforge.net/DTD/sodipodi-0.dtd"
   xmlns="http://www.w3.org/2000/svg"
   xmlns:svg="http://www.w3.org/2000/svg">
  <sodipodi:namedview
     id="namedview2"
     pagecolor="#ffffff"
     bordercolor="#666666"
     borderopacity="1.0"
     inkscape:showpageshadow="2"
     inkscape:pageopacity="0.0"
     inkscape:pagecheckerboard="0"
     inkscape:deskcolor="#d1d1d1" />
  <defs
     id="defs1">
    <style
       id="style1">.a{fill:none;stroke:#fff;stroke-width:2px;stroke-linecap:round;stroke-linejoin:round;}</style>
  </defs>
  <path
     style="color:#000000;fill:#ffffff;stroke-linecap:round;stroke-linejoin:round;-inkscape-stroke:none"
     d="M 24,9 C 15.727582,9 9,15.727582 9,24 9,32.272418 15.727582,39 24,39 32.272418,39 39,32.272418 39,24 39,15.727582 32.272418,9 24,9 Z m 0,2 c 7.191539,0 13,5.808461 13,13 0,7.191539 -5.808461,13 -13,13 -7.191539,0 -13,-5.808461 -13,-13 0,-7.191539 5.808461,-13 13,-13 z"
     id="circle1" />
  <path
     style="color:#000000;fill:#ffffff;stroke-linecap:round;stroke-linejoin:round;-inkscape-stroke:none"
     d="M 18.501953,16.132812 A 1.0001,1.0001 0 0 0 18,17 v 14 a 1.0001,1.0001 0 0 0 1.503906,0.863281 l 12,-7 a 1.0001,1.0001 0 0 0 0,-1.726562 l -12,-7 a 1.0001,1.0001 0 0 0 -1.001953,-0.0039 z M 20,18.740234 29.015625,24 20,29.259766 Z"
     id="path1" />
  <path
     style="color:#000000;fill:#ffffff;stroke-linecap:round;stroke-linejoin:round;-inkscape-stroke:none"
     d="M 24,1.5 C 11.58545,1.5 1.5,11.58545 1.5,24 1.5,36.41455 11.58545,46.5 24,46.5 36.41455,46.5 46.5,36.41455 46.5,24 46.5,11.58545 36.41455,1.5 24,1.5 Z m 0,2 C 35.333671,3.5 44.5,12.666329 44.5,24 44.5,35.333671 35.333671,44.5 24,44.5 12.666329,44.5 3.5,35.333671 3.5,24 3.5,12.666329 12.666329,3.5 24,3.5 Z"
     id="circle2" />
</svg>

<?xml version="1.0" encoding="UTF-8"?>
<svg id="svg12" version="1.1" viewBox="0 0 48 48" xmlns="http://www.w3.org/2000/svg">
 <defs id="defs4">
  <style id="style2">.a{fill:none;stroke:#fff;stroke-width:2px;stroke-linecap:round;stroke-linejoin:round;}</style>
 </defs>
 <path id="circle6" d="m24 9c-8.2724 0-15 6.7276-15 15s6.7276 15 15 15 15-6.7276 15-15-6.7276-15-15-15zm0 2c7.1915 0 13 5.8085 13 13s-5.8085 13-13 13-13-5.8085-13-13 5.8085-13 13-13z" color="#000000" fill="#fff" stroke-linecap="round" stroke-linejoin="round" style="-inkscape-stroke:none"/>
 <path id="path8" d="m18.502 16.133a1.0001 1.0001 0 0 0-0.50195 0.86719v14a1.0001 1.0001 0 0 0 1.5039 0.86328l12-7a1.0001 1.0001 0 0 0 0-1.7266l-12-7a1.0001 1.0001 0 0 0-1.002-0.0039zm1.498 2.6074 9.0156 5.2598-9.0156 5.2598z" color="#000000" fill="#fff" stroke-linecap="round" stroke-linejoin="round" style="-inkscape-stroke:none"/>
 <path id="circle10" d="m24 1.5c-12.415 0-22.5 10.085-22.5 22.5s10.085 22.5 22.5 22.5 22.5-10.085 22.5-22.5-10.085-22.5-22.5-22.5zm0 2c11.334 0 20.5 9.1663 20.5 20.5s-9.1663 20.5-20.5 20.5-20.5-9.1663-20.5-20.5 9.1663-20.5 20.5-20.5z" color="#000000" fill="#fff" stroke-linecap="round" stroke-linejoin="round" style="-inkscape-stroke:none"/>
</svg>
